images/advantages-icon-6.svg

<svg width="22" height="25" viewBox="0 0 22 25" fill="none" xmlns="http://www.w3.org/2000/svg">
<path d="M19.2197 2.93626L12.4505 0.400877C11.749 0.142416 10.6044 0.142416 9.90282 0.400877L3.13359 2.93626C1.82897 3.42857 0.770508 4.95472 0.770508 6.34549V16.3147C0.770508 17.3116 1.42282 18.6286 2.22282 19.2193L8.99205 24.2778C10.1859 25.1763 12.1428 25.1763 13.3367 24.2778L20.1059 19.2193C20.9059 18.6163 21.5582 17.3116 21.5582 16.3147V6.34549C21.5705 4.95472 20.512 3.42857 19.2197 2.93626ZM12.0936 13.644V16.8809C12.0936 17.3855 11.6751 17.804 11.1705 17.804C10.6659 17.804 10.2474 17.3855 10.2474 16.8809V13.644C9.00435 13.2501 8.09358 12.0932 8.09358 10.727C8.09358 9.02857 9.47205 7.65011 11.1705 7.65011C12.869 7.65011 14.2474 9.02857 14.2474 10.727C14.2474 12.1055 13.3367 13.2501 12.0936 13.644Z" fill="white"/>
</svg>

<svg width="22" height="25" fill="none" xmlns="http://www.w3.org/2000/svg"><path d="M19.22 2.936L12.45.401C11.75.142 10.604.142 9.903.4l-6.77 2.535C1.83 3.43.772 4.955.772 6.346v9.969c0 .997.652 2.314 1.452 2.904l6.77 5.059c1.193.898 3.15.898 4.344 0l6.769-5.059c.8-.603 1.452-1.907 1.452-2.904v-9.97c.012-1.39-1.046-2.916-2.338-3.409zm-7.126 10.708v3.237a.93.93 0 01-.923.923.93.93 0 01-.924-.923v-3.237c-1.243-.394-2.153-1.55-2.153-2.917a3.078 3.078 0 016.153 0c0 1.378-.91 2.523-2.153 2.917z" fill="#fff"/></svg>
